public/icons/ts.svg

<?xml version="1.0" encoding="UTF-8" standalone="no" ?>
<!DOCTYPE svg PUBLIC "-//W3C//DTD SVG 1.1//EN" "http://www.w3.org/Graphics/SVG/1.1/DTD/svg11.dtd">
<svg xmlns="http://www.w3.org/2000/svg" xmlns:xlink="http://www.w3.org/1999/xlink" version="1.1" width="640" height="640" viewBox="0 0 640 640" xml:space="preserve">
<desc>Created with Fabric.js 5.3.0</desc>
<defs>
</defs>
<g transform="matrix(1.5328834909 0 0 1.5328835155 320 320)" id="tlLnc2e8TL-X05KZn0i9U"  >
<path style="stroke: none; stroke-width: 1; stroke-dasharray: none; stroke-linecap: butt; stroke-dashoffset: 0; stroke-linejoin: miter; stroke-miterlimit: 4; fill: rgb(255,255,255); fill-rule: nonzero; opacity: 1;" vector-effect="non-scaling-stroke"  transform=" translate(-227.4805190532, -274.5616656799)" d="M 87.7 200.7 L 87.7 217 L 139.7 217 L 139.7 365 L 176.6 365 L 176.6 217 L 228.6 217 L 228.6 201 C 228.6 192 228.6 184.7 228.2 184.5 C 228.2 184.2 196.5 184.1 158 184.1 L 88 184.4 L 88 200.8 L 87.7 200.70000000000002 z M 321.4 184 C 331.59999999999997 186.4 339.4 191 346.4 198.3 C 350.09999999999997 202.3 355.59999999999997 209.3 356 211.10000000000002 C 356 211.70000000000002 338.7 223.40000000000003 328.2 229.90000000000003 C 327.8 230.20000000000005 326.2 228.50000000000003 324.59999999999997 225.90000000000003 C 319.4 218.50000000000003 314.09999999999997 215.30000000000004 305.79999999999995 214.70000000000005 C 293.79999999999995 213.90000000000003 285.79999999999995 220.20000000000005 285.79999999999995 230.70000000000005 C 285.79999999999995 233.90000000000003 286.4 235.70000000000005 287.59999999999997 238.30000000000004 C 290.29999999999995 243.80000000000004 295.29999999999995 247.10000000000005 310.79999999999995 253.90000000000003 C 339.4 266.20000000000005 351.79999999999995 274.3 359.29999999999995 285.90000000000003 C 367.79999999999995 298.90000000000003 369.69999999999993 319.3 363.99999999999994 334.6 C 357.59999999999997 351.3 341.99999999999994 362.6 319.69999999999993 366.3 C 312.69999999999993 367.5 296.69999999999993 367.3 289.19999999999993 366 C 273.19999999999993 363 257.8999999999999 355 248.49999999999994 344.7 C 244.79999999999995 340.7 237.69999999999993 330 238.09999999999994 329.3 L 241.89999999999995 326.90000000000003 L 256.9 318.20000000000005 L 268.2 311.6 L 270.8 315.1 C 274.1 320.3 281.5 327.3 285.8 329.70000000000005 C 298.8 336.40000000000003 316.2 335.50000000000006 324.8 327.70000000000005 C 328.5 324.30000000000007 330.1 320.70000000000005 330.1 315.70000000000005 C 330.1 311.1 329.40000000000003 309.00000000000006 327.1 305.50000000000006 C 323.90000000000003 301.1000000000001 317.5 297.50000000000006 299.5 289.50000000000006 C 278.8 280.70000000000005 270 275.1000000000001 261.8 266.50000000000006 C 257.1 261.30000000000007 252.8 253.20000000000005 250.8 246.50000000000006 C 249.3 240.70000000000005 248.8 226.50000000000006 250.20000000000002 220.80000000000007 C 254.50000000000003 200.80000000000007 269.6 186.80000000000007 291.20000000000005 182.80000000000007 C 298.20000000000005 181.40000000000006 314.70000000000005 182.00000000000006 321.6 183.80000000000007 L 321.40000000000003 184.00000000000006 z" stroke-linecap="round" />
</g>
</svg>

<svg id="Layer_1" xmlns="http://www.w3.org/2000/svg" viewBox="0 0 400 400" width="2500" height="2500"><style>.st0{fill:#007acc}.st1{fill:#fff}</style><path class="st0" d="M0 200V0h400v400H0"/><path class="st1" d="M87.7 200.7V217h52v148h36.9V217h52v-16c0-9 0-16.3-.4-16.5 0-.3-31.7-.4-70.2-.4l-70 .3v16.4l-.3-.1zM321.4 184c10.2 2.4 18 7 25 14.3 3.7 4 9.2 11 9.6 12.8 0 .6-17.3 12.3-27.8 18.8-.4.3-2-1.4-3.6-4-5.2-7.4-10.5-10.6-18.8-11.2-12-.8-20 5.5-20 16 0 3.2.6 5 1.8 7.6 2.7 5.5 7.7 8.8 23.2 15.6 28.6 12.3 41 20.4 48.5 32 8.5 13 10.4 33.4 4.7 48.7-6.4 16.7-22 28-44.3 31.7-7 1.2-23 1-30.5-.3-16-3-31.3-11-40.7-21.3-3.7-4-10.8-14.7-10.4-15.4l3.8-2.4 15-8.7 11.3-6.6 2.6 3.5c3.3 5.2 10.7 12.2 15 14.6 13 6.7 30.4 5.8 39-2 3.7-3.4 5.3-7 5.3-12 0-4.6-.7-6.7-3-10.2-3.2-4.4-9.6-8-27.6-16-20.7-8.8-29.5-14.4-37.7-23-4.7-5.2-9-13.3-11-20-1.5-5.8-2-20-.6-25.7 4.3-20 19.4-34 41-38 7-1.4 23.5-.8 30.4 1l-.2.2z"/></svg>
